public/svg/twitter.svg

<svg width="52" height="52" viewBox="0 0 52 52" fill="none" xmlns="http://www.w3.org/2000/svg">
<g opacity="0.6">
<path d="M48.5332 12.0245C46.8744 12.7612 45.0926 13.2569 43.2223 13.4805C45.1324 12.3365 46.5971 10.5252 47.287 8.36545C45.5016 9.42452 43.5222 10.1941 41.4144 10.6101C39.7279 8.81265 37.3255 7.68945 34.6666 7.68945C29.5602 7.68945 25.421 11.8304 25.421 16.9351C25.421 17.6596 25.5042 18.3668 25.6602 19.0411C17.9763 18.6563 11.1643 14.9747 6.60218 9.37945C5.80831 10.7453 5.35244 12.3331 5.35244 14.03C5.35244 17.2367 6.98351 20.0672 9.46391 21.7243C7.94898 21.6757 6.52244 21.2597 5.27618 20.5681C5.27618 20.608 5.27618 20.6444 5.27618 20.6843C5.27618 25.1649 8.46204 28.902 12.6931 29.7496C11.9183 29.9611 11.1002 30.0737 10.256 30.0737C9.66151 30.0737 9.08084 30.0148 8.51751 29.909C9.69444 33.582 13.1091 36.2565 17.1547 36.331C13.9914 38.8114 10.0047 40.29 5.67138 40.29C4.92604 40.29 4.18938 40.2467 3.46484 40.16C7.55724 42.7825 12.4158 44.3131 17.6383 44.3131C34.6458 44.3131 43.9434 30.2245 43.9434 18.0063C43.9434 17.6059 43.9347 17.2072 43.9174 16.8103C45.7252 15.5051 47.2939 13.8775 48.5332 12.0245Z" fill="white"/>
</g>
</svg>

<svg width="52" height="52" fill="none" xmlns="http://www.w3.org/2000/svg"><path d="M48.533 12.024a18.455 18.455 0 0 1-5.31 1.457 9.262 9.262 0 0 0 4.064-5.116 18.54 18.54 0 0 1-5.873 2.245 9.231 9.231 0 0 0-6.747-2.92 9.246 9.246 0 0 0-9.246 9.245c0 .725.083 1.432.24 2.106-7.685-.385-14.497-4.066-19.059-9.662a9.223 9.223 0 0 0-1.25 4.651 9.239 9.239 0 0 0 4.112 7.694 9.228 9.228 0 0 1-4.188-1.156v.116a9.247 9.247 0 0 0 7.417 9.066 9.248 9.248 0 0 1-4.175.159 9.257 9.257 0 0 0 8.637 6.422A18.545 18.545 0 0 1 5.67 40.29a18.57 18.57 0 0 1-2.206-.13 26.177 26.177 0 0 0 14.173 4.153c17.008 0 26.305-14.089 26.305-26.307 0-.4-.008-.799-.026-1.196a18.814 18.814 0 0 0 4.616-4.785Z" fill="#fff"/></svg>
